X: 80
T: The Liberal Lover
%R: reel
B: Chas & Sam Thompson "Twenty Four Country Dances for the Year 1776", London 1776, p.40 #2
F: http://www.vwml.org/browse/browse-collections-dance-tune-books/browse-thompsons1776#
Z: 2014 John Chambers <jc:trillian.mit.edu> (added dance description)
M: C|
L: 1/8
K: A
%%slurgraces 1
%%graceslurs 1
% - - - - - - - - - - - - - - - - - - - - - - - - - - - - -
|:\
(Ac)(ec) (Ac)(ec) | (dc)(BA) (GF)(GE) |\
(Ac)(ec) (Ac)(ec) | (dB) (AG) A4 :|
|:\
(CE)(AE) (FA) (Bc) | (dc)(BA) {A}G2E2 |\
(CE)(AE) (FA) (Bd) | (cB) (AG) A2A2 :|
% - - - - - - - - - - Dance description - - - - - - - - - -
%%begintext align
%% Hands 4 across .| the same back
%% again :| lead down 2 Cu. .|| up
%% again & cast off :|| turn corners
%% .|. :|. lead out sides .||. :||.
%%endtext

%%sep 1 1 500
%%sep 1 1 500
